Numix-Light/16/status/indicator-keyboard-Uz-4.svg

<?xml version="1.0" encoding="UTF-8" standalone="no"?>
<svg
   xmlns:dc="http://purl.org/dc/elements/1.1/"
   xmlns:cc="http://creativecommons.org/ns#"
   xmlns:rdf="http://www.w3.org/1999/02/22-rdf-syntax-ns#"
   xmlns:svg="http://www.w3.org/2000/svg"
   xmlns="http://www.w3.org/2000/svg"
   xmlns:sodipodi="http://sodipodi.sourceforge.net/DTD/sodipodi-0.dtd"
   xmlns:inkscape="http://www.inkscape.org/namespaces/inkscape"
   viewBox="0 0 16 16"
   id="svg2"
   version="1.1"
   inkscape:version="0.91 r13725"
   sodipodi:docname="indicator-keyboard-Uz-4.svg">
  <metadata
     id="metadata14">
    <rdf:RDF>
      <cc:Work
         rdf:about="">
        <dc:format>image/svg+xml</dc:format>
        <dc:type
           rdf:resource="http://purl.org/dc/dcmitype/StillImage" />
      </cc:Work>
    </rdf:RDF>
  </metadata>
  <defs
     id="defs12" />
  <sodipodi:namedview
     pagecolor="#ffffff"
     bordercolor="#666666"
     borderopacity="1"
     objecttolerance="10"
     gridtolerance="10"
     guidetolerance="10"
     inkscape:pageopacity="0"
     inkscape:pageshadow="2"
     inkscape:window-width="459"
     inkscape:window-height="369"
     id="namedview10"
     showgrid="false"
     inkscape:zoom="14.75"
     inkscape:cx="8"
     inkscape:cy="8"
     inkscape:window-x="65"
     inkscape:window-y="24"
     inkscape:window-maximized="0"
     inkscape:current-layer="svg2" />
  <path
     style="fill:#353535;fill-opacity:1"
     d="M 1.5996094 0 C 0.71320937 2.9605947e-16 0 0.71320937 0 1.5996094 L 0 14.400391 C 2.9605947e-16 15.286791 0.71320937 16 1.5996094 16 L 14.400391 16 C 15.286791 16 16 15.286791 16 14.400391 L 16 1.5996094 C 16 0.71320937 15.286791 0 14.400391 0 L 1.5996094 0 z M 1.8164062 4.859375 L 2.4296875 4.859375 L 2.4296875 8.7011719 C 2.4296875 9.0431719 2.4669219 9.34175 2.5449219 9.59375 C 2.6289219 9.83975 2.7446719 10.043078 2.8886719 10.205078 C 3.0326719 10.367078 3.2061563 10.486453 3.4101562 10.564453 C 3.6141563 10.642453 3.84175 10.681641 4.09375 10.681641 C 4.34575 10.681641 4.5733437 10.642453 4.7773438 10.564453 C 4.9813437 10.486453 5.1548281 10.367078 5.2988281 10.205078 C 5.4428281 10.043078 5.5548125 9.83975 5.6328125 9.59375 C 5.7168125 9.34175 5.7578125 9.0431719 5.7578125 8.7011719 L 5.7578125 4.859375 L 6.3710938 4.859375 L 6.3710938 8.7832031 C 6.3710938 9.1252031 6.3281406 9.4460938 6.2441406 9.7460938 C 6.1661406 10.040094 6.0374219 10.297531 5.8574219 10.519531 C 5.6774219 10.741531 5.4404844 10.916969 5.1464844 11.042969 C 4.8584844 11.168969 4.50775 11.230469 4.09375 11.230469 C 3.67975 11.230469 3.32525 11.168969 3.03125 11.042969 C 2.74325 10.916969 2.5100781 10.741531 2.3300781 10.519531 C 2.1500781 10.297531 2.0175937 10.040094 1.9335938 9.7460938 C 1.8555937 9.4460938 1.8164062 9.1252031 1.8164062 8.7832031 L 1.8164062 4.859375 z M 7.5585938 6.4433594 L 10.744141 6.4433594 L 10.744141 6.9199219 C 10.606141 7.0759219 10.425125 7.2923594 10.203125 7.5683594 C 9.9811251 7.8443594 9.7441875 8.1521406 9.4921875 8.4941406 C 9.2401875 8.8301406 8.9920937 9.1846406 8.7460938 9.5566406 C 8.5000938 9.9226408 8.2836562 10.271563 8.0976562 10.601562 L 10.824219 10.601562 L 10.824219 11.095703 L 7.421875 11.095703 L 7.421875 10.673828 C 7.577875 10.379828 7.7700469 10.055172 7.9980469 9.7011719 C 8.2320469 9.3471719 8.47275 8.99825 8.71875 8.65625 C 8.96475 8.30825 9.2054531 7.9855469 9.4394531 7.6855469 C 9.6734531 7.3795469 9.8712032 7.1295 10.033203 6.9375 L 7.5585938 6.9375 L 7.5585938 6.4433594 z M 13.283203 8.8417969 L 13.679688 8.8417969 L 13.679688 11.486328 L 14.183594 11.486328 L 14.183594 11.796875 L 13.679688 11.796875 L 13.679688 12.896484 L 13.306641 12.896484 L 13.306641 11.796875 L 11.46875 11.796875 L 11.46875 11.5625 C 11.53895 11.3753 11.636919 11.163687 11.761719 10.929688 C 11.890419 10.695688 12.033459 10.456637 12.193359 10.210938 C 12.353259 9.9652374 12.527644 9.7261874 12.714844 9.4921875 C 12.902044 9.2542875 13.092103 9.0367969 13.283203 8.8417969 z M 13.306641 9.2695312 C 13.170141 9.4099312 13.031025 9.5706063 12.890625 9.7539062 C 12.750225 9.9372063 12.615028 10.129225 12.486328 10.328125 C 12.361528 10.523125 12.243966 10.719069 12.134766 10.917969 C 12.025566 11.116869 11.935428 11.306928 11.861328 11.486328 L 13.306641 11.486328 L 13.306641 9.2695312 z "
     id="path4" />
</svg>

<svg xmlns="http://www.w3.org/2000/svg" viewBox="0 0 16 16">
 <path d="m 1.6 0 c -0.886 0 -1.6 0.713 -1.6 1.6 l 0 12.801 c 0 0.886 0.713 1.6 1.6 1.6 l 12.801 0 c 0.886 0 1.6 -0.713 1.6 -1.6 l 0 -12.801 c 0 -0.886 -0.713 -1.6 -1.6 -1.6 l -12.801 0 z m 0.217 4.859 l 0.613 0 l 0 3.842 c 0 0.342 0.037 0.641 0.115 0.893 c 0.084 0.246 0.2 0.449 0.344 0.611 c 0.144 0.162 0.317 0.281 0.521 0.359 c 0.204 0.078 0.432 0.117 0.684 0.117 c 0.252 0 0.48 -0.039 0.684 -0.117 c 0.204 -0.078 0.377 -0.197 0.521 -0.359 c 0.144 -0.162 0.256 -0.365 0.334 -0.611 c 0.084 -0.252 0.125 -0.551 0.125 -0.893 l 0 -3.842 l 0.613 0 l 0 3.924 c 0 0.342 -0.043 0.663 -0.127 0.963 c -0.078 0.294 -0.207 0.551 -0.387 0.773 c -0.18 0.222 -0.417 0.397 -0.711 0.523 c -0.288 0.126 -0.639 0.188 -1.053 0.188 c -0.414 0 -0.769 -0.061 -1.063 -0.188 c -0.288 -0.126 -0.521 -0.301 -0.701 -0.523 c -0.18 -0.222 -0.312 -0.479 -0.396 -0.773 c -0.078 -0.3 -0.117 -0.621 -0.117 -0.963 l 0 -3.924 z m 5.742 1.584 l 3.186 0 l 0 0.477 c -0.138 0.156 -0.319 0.372 -0.541 0.648 c -0.222 0.276 -0.459 0.584 -0.711 0.926 c -0.252 0.336 -0.5 0.691 -0.746 1.063 c -0.246 0.366 -0.462 0.715 -0.648 1.045 l 2.727 0 l 0 0.494 l -3.402 0 l 0 -0.422 c 0.156 -0.294 0.348 -0.619 0.576 -0.973 c 0.234 -0.354 0.475 -0.703 0.721 -1.045 c 0.246 -0.348 0.487 -0.671 0.721 -0.971 c 0.234 -0.306 0.432 -0.556 0.594 -0.748 l -2.475 0 l 0 -0.494 z m 5.725 2.398 l 0.396 0 l 0 2.645 l 0.504 0 l 0 0.311 l -0.504 0 l 0 1.1 l -0.373 0 l 0 -1.1 l -1.838 0 l 0 -0.234 c 0.07 -0.187 0.168 -0.399 0.293 -0.633 c 0.129 -0.234 0.272 -0.473 0.432 -0.719 c 0.16 -0.246 0.334 -0.485 0.521 -0.719 c 0.187 -0.238 0.377 -0.455 0.568 -0.65 z m 0.023 0.428 c -0.137 0.14 -0.276 0.301 -0.416 0.484 c -0.14 0.183 -0.276 0.375 -0.404 0.574 c -0.125 0.195 -0.242 0.391 -0.352 0.59 c -0.109 0.199 -0.199 0.389 -0.273 0.568 l 1.445 0 l 0 -2.217 z" style="fill:#353535;fill-opacity:1"/>
</svg>
